projects/front-end-library/src/lib/components/logo/svg/logo-videotron-business-medium-en.svg

<svg width="181" height="40" viewBox="0 0 181 40" fill="none" xmlns="http://www.w3.org/2000/svg">
    <path d="M40 0H0V40H40V0Z" class="fill-brand"/>
    <path d="M10.8052 10.2654L30.1556 19.8876L10.782 29.7332L23.2431 19.9173L10.8052 10.2654Z" fill="#050504"/>
    <path d="M57.0553 14.6158L53.5984 3.74121H50.967L55.5962 17.786H58.4819L63.1319 3.74121H60.5283L57.0553 14.6158Z" fill="currentColor"/>
    <path d="M95.587 15.4367H89.2167V11.9937H95.1361V9.63519H89.2167V6.09048H95.587V3.74121H86.7495V17.786H95.587V15.4367Z" fill="currentColor"/>
    <path d="M80.7793 17.3651C81.4454 16.9166 82.0335 16.362 82.5204 15.7234C82.77 15.3219 82.8932 14.8547 82.8742 14.3823V7.19806C82.8979 6.72258 82.7673 6.25216 82.5019 5.85694C82.2175 5.4546 81.3273 4.44645 80.807 4.14586C80.3729 3.88363 79.8759 3.74381 79.3688 3.74121H72.9384V17.7883H79.3688C79.8668 17.7663 80.3515 17.6209 80.7793 17.3651ZM75.4055 15.4367V6.09048H79.1352C79.2076 6.0855 79.2802 6.09253 79.3503 6.11129C79.7725 6.37175 80.128 6.72727 80.3885 7.1495C80.4005 7.18766 80.4068 7.22741 80.407 7.26743V14.336C80.407 14.6089 79.7017 15.2263 79.3688 15.4112C79.3184 15.4255 79.2661 15.4317 79.2139 15.4297L75.4055 15.4367Z" fill="currentColor"/>
    <path d="M68.6144 3.74121H66.1472V17.7952H68.6144V3.74121Z" fill="currentColor"/>
    <path d="M160.8 3.74121V13.1868L155.974 3.74121H153.322V17.786H155.787V8.46056L160.652 17.786H163.265V3.74121H160.8Z" fill="currentColor"/>
    <path d="M136.047 17.7884L133.256 12.0632C133.475 11.9831 133.68 11.87 133.864 11.7279C134.334 11.3632 134.76 10.9466 135.136 10.4862C135.418 10.0602 135.566 9.55903 135.559 9.04799V6.98313C135.562 6.47414 135.415 5.97565 135.136 5.54952C134.763 5.07201 134.336 4.63907 133.864 4.25928C133.373 3.92512 132.794 3.74408 132.2 3.73901H125.596V17.7884H128.061V12.2551H130.761L133.374 17.8046L136.047 17.7884ZM133.092 9.02949C133.09 9.0638 133.08 9.09711 133.062 9.12661C132.877 9.44802 132.408 9.89891 132.2 9.89891H128.061V6.09059H132.317C132.549 6.11141 132.926 6.5808 133.062 6.8444C133.083 6.89403 133.094 6.94767 133.092 7.00163V9.02949Z" fill="currentColor"/>
    <path d="M147.523 4.06719C147.082 3.80228 146.58 3.65646 146.066 3.64404H142.487C141.973 3.65486 141.47 3.80079 141.03 4.06719C140.54 4.34929 139.599 5.35744 139.317 5.75977C139.059 6.15858 138.929 6.6264 138.944 7.10089V14.4609C138.931 14.9315 139.061 15.3951 139.317 15.7904C139.599 16.1927 140.54 17.2101 141.03 17.483C141.47 17.7516 141.972 17.8999 142.487 17.9131H146.059C146.574 17.8982 147.076 17.75 147.516 17.483C148.006 17.2101 148.926 16.1927 149.229 15.7904C149.485 15.395 149.616 14.9316 149.604 14.4609V7.10089C149.615 6.6253 149.481 6.15764 149.22 5.75977C148.926 5.35744 148.006 4.34929 147.523 4.06719ZM147.153 14.4308C147.151 14.4652 147.141 14.4986 147.123 14.5279C146.848 14.926 146.499 15.2682 146.096 15.5361C146.058 15.5481 146.018 15.5543 145.978 15.5546H142.584C142.544 15.5562 142.504 15.5499 142.466 15.5361C142.058 15.2714 141.706 14.9288 141.43 14.5279C141.416 14.4974 141.409 14.4643 141.409 14.4308V7.16795C141.41 7.12776 141.417 7.08792 141.43 7.05002C141.706 6.64426 142.058 6.29565 142.466 6.02337C142.487 5.99562 142.584 5.99562 142.584 5.99562H145.971C146.012 5.99423 146.053 6.00381 146.089 6.02337C146.492 6.29887 146.84 6.64702 147.116 7.05002C147.146 7.08008 147.146 7.16795 147.146 7.16795L147.153 14.4308Z" fill="currentColor"/>
    <path d="M122.257 3.74121H112.175V6.09048H115.984V17.7975H118.449V6.09048H122.257V3.74121Z" fill="currentColor"/>
    <path d="M109.525 15.7904C109.775 15.3926 109.904 14.9306 109.895 14.4609V7.10089C109.906 6.62732 109.777 6.1611 109.525 5.75977C109.22 5.35744 108.3 4.34929 107.8 4.06719C107.366 3.80609 106.871 3.66044 106.365 3.64404H102.781C102.265 3.65391 101.762 3.7999 101.321 4.06719C100.824 4.34929 99.8832 5.35744 99.6104 5.75977C99.3496 6.15764 99.2158 6.6253 99.2266 7.10089V14.4609C99.2177 14.9326 99.3515 15.396 99.6104 15.7904C99.8832 16.1927 100.824 17.2101 101.321 17.483C101.761 17.7526 102.265 17.901 102.781 17.9131H106.365C106.876 17.8962 107.374 17.7481 107.812 17.483C108.3 17.2101 109.22 16.1858 109.525 15.7904ZM107.428 14.4308C107.427 14.4639 107.421 14.4967 107.41 14.5279C107.129 14.9275 106.774 15.2697 106.365 15.5361C106.326 15.548 106.287 15.5542 106.247 15.5546H102.868C102.829 15.5554 102.79 15.5492 102.753 15.5361C102.346 15.2716 101.995 14.9289 101.722 14.5279C101.703 14.4989 101.693 14.4652 101.694 14.4308V7.16795C101.694 7.1271 101.704 7.08688 101.722 7.05002C101.995 6.64406 102.346 6.29535 102.753 6.02337C102.781 5.99562 102.868 5.99562 102.868 5.99562H106.256C106.297 5.99423 106.338 6.00381 106.374 6.02337C106.78 6.29797 107.131 6.64618 107.41 7.05002C107.423 7.08792 107.429 7.12785 107.428 7.16795V14.4308Z" fill="currentColor"/>
    <path d="M59.9988 22.6348C59.5822 22.3376 59.084 22.1761 58.5721 22.1724H52.2157V36.2934H58.5721C59.0828 36.2935 59.581 36.136 59.9988 35.8425C60.4344 35.4677 60.8296 35.0485 61.1781 34.5916C61.4093 34.2308 61.5255 33.8082 61.511 33.3799V31.3775C61.5256 30.9339 61.4098 30.4958 61.1781 30.1173C60.9068 29.7712 60.6075 29.4479 60.2832 29.1508C60.6075 28.8537 60.9068 28.5304 61.1781 28.1843C61.4098 27.8058 61.5256 27.3677 61.511 26.9241V25.1205C61.5257 24.6777 61.4099 24.2402 61.1781 23.8626C60.8287 23.4135 60.4335 23.002 59.9988 22.6348ZM53.6447 29.8399H58.5791C58.7026 29.8353 58.8256 29.8574 58.9398 29.9046C59.386 30.1926 59.7583 30.5815 60.0266 31.0399C60.0753 31.1537 60.0982 31.2769 60.0936 31.4006V33.3221C60.098 33.4449 60.0759 33.5671 60.0289 33.6805C59.7596 34.1397 59.3856 34.5287 58.9375 34.8159C58.8211 34.8806 58.689 34.9118 58.556 34.906H53.6447V29.8399ZM58.9398 28.397C58.8275 28.4529 58.7044 28.4836 58.5791 28.4872H53.6447V23.5366H58.556C58.6897 23.5313 58.8224 23.5625 58.9398 23.6268C59.3856 23.9242 59.7573 24.3196 60.0266 24.7829C60.0753 24.8967 60.0982 25.0199 60.0936 25.1436V26.8778C60.0976 27.0088 60.0756 27.1393 60.0289 27.2617C59.7572 27.7205 59.3818 28.1093 58.9329 28.397H58.9398Z" fill="currentColor"/>
    <path d="M72.8759 33.2043C72.8697 33.3065 72.8387 33.4057 72.7858 33.4933C72.4231 34.0782 71.9389 34.5781 71.366 34.9593C71.2779 35.0061 71.1789 35.0284 71.0793 35.0241H68.1751C68.0737 35.028 67.9732 35.0048 67.8837 34.957C67.2988 34.5777 66.8007 34.0789 66.4224 33.4933C66.3694 33.4057 66.3385 33.3065 66.3322 33.2043V22.1609H64.9102V33.2598C64.9015 33.6624 65.0091 34.059 65.22 34.4021C65.6746 35.0149 66.2142 35.5599 66.8224 36.0207C67.1952 36.2497 67.6201 36.3802 68.0572 36.3999H71.1972C71.6269 36.3793 72.0441 36.2488 72.4089 36.0207C73.0173 35.5593 73.5575 35.0144 74.0136 34.4021V34.4021C74.2163 34.0566 74.3151 33.66 74.298 33.2598V22.1609H72.8759V33.2043Z" fill="currentColor"/>
    <path d="M86.2177 29.4236L79.8219 27.6431C79.6149 27.5653 79.437 27.4252 79.3128 27.2422C79.1886 27.0592 79.1241 26.8422 79.1282 26.6211V25.1435C79.1341 25.042 79.1651 24.9435 79.2184 24.8568C79.5894 24.3027 80.0821 23.8408 80.659 23.5064C80.7472 23.4602 80.8461 23.4379 80.9457 23.4417H84.2499C84.3506 23.4374 84.4505 23.4606 84.5389 23.5088C85.1182 23.8832 85.6039 24.3855 85.9587 24.9771C86.022 25.0707 86.0754 25.1707 86.1182 25.2753L86.1298 25.3008L87.5518 24.8846L87.538 24.8499C87.3875 24.5245 87.2055 24.2147 86.9946 23.925C86.7217 23.5573 86.0697 22.7688 85.5332 22.4405C85.1684 22.2127 84.7512 22.0821 84.3216 22.0613H80.8301C80.4004 22.0818 79.9832 22.2124 79.6184 22.4405C79.0033 22.9112 78.4583 23.4671 77.9998 24.0915C77.7979 24.4424 77.6986 24.843 77.7131 25.2476V26.6997C77.7131 27.7703 78.3213 28.6883 79.1907 28.9334L85.6095 30.6907C86.0581 30.8086 86.3356 31.3381 86.3356 31.7613V33.2596C86.3372 33.3597 86.315 33.4588 86.2708 33.5486C85.8903 34.1134 85.3897 34.5871 84.8049 34.936C84.7249 34.9821 84.6335 35.0045 84.5413 35.0008H80.7977C80.6889 35.0048 80.5809 34.9818 80.4832 34.9337C79.9113 34.5538 79.4285 34.0544 79.0681 33.47V33.47C79.0005 33.3892 78.9466 33.2978 78.9086 33.1995V33.1741L77.5096 33.5648L77.5235 33.5995C77.6665 33.924 77.8407 34.2338 78.0438 34.5244C78.3143 34.8921 78.9687 35.6806 79.5051 36.0089C79.8779 36.2379 80.3028 36.3684 80.7399 36.3881H84.6291C85.0589 36.368 85.4762 36.2374 85.8408 36.0089C86.4547 35.5493 86.9997 35.0042 87.4593 34.3903V34.3903C87.6613 34.0394 87.7606 33.6388 87.7461 33.2342V31.641C87.7414 30.5866 87.1148 29.6779 86.2177 29.4236Z" fill="currentColor"/>
    <path d="M92.4262 22.1609H91.0018V36.2842H92.4262V22.1609Z" fill="currentColor"/>
    <path d="M103.865 34.1685L97.8577 22.1771L97.8485 22.1609H95.9917V36.2819H97.3675V24.3876L103.423 36.2657L103.433 36.2819H105.241V22.1609H103.865V34.1685Z" fill="currentColor"/>
    <path d="M108.827 36.2819H116.95V34.9061H110.249V29.9093H116.599V28.5335H110.249V23.5367H116.95V22.1609H108.827V36.2819Z" fill="currentColor"/>
    <path d="M128.588 29.4236L122.192 27.6431C121.985 27.565 121.808 27.4249 121.683 27.2419C121.559 27.059 121.495 26.8422 121.498 26.6211V25.1436C121.504 25.042 121.535 24.9435 121.589 24.8568C121.96 24.3021 122.453 23.8401 123.031 23.5065C123.119 23.4597 123.218 23.4374 123.318 23.4417H126.62C126.721 23.4375 126.822 23.4606 126.911 23.5088C127.49 23.8824 127.975 24.383 128.331 24.9724C128.394 25.0661 128.448 25.1661 128.491 25.2707L128.502 25.2962L129.89 24.8892H129.924L129.91 24.8545C129.759 24.5297 129.577 24.22 129.367 23.9296C129.096 23.562 128.442 22.7735 127.906 22.4451C127.541 22.217 127.124 22.0865 126.694 22.0659H123.203C122.773 22.0865 122.356 22.217 121.991 22.4451C121.376 22.9165 120.831 23.4723 120.372 24.0961C120.171 24.4473 120.073 24.8478 120.088 25.2522V26.7043C120.088 27.7749 120.694 28.6929 121.563 28.938L127.984 30.6953C128.431 30.8132 128.708 31.3428 128.708 31.7659V33.2642C128.71 33.3644 128.687 33.4634 128.643 33.5533C128.263 34.1183 127.762 34.5921 127.177 34.9406C127.097 34.987 127.006 35.0094 126.914 35.0054H123.168C123.059 35.009 122.951 34.9859 122.853 34.9383C122.282 34.5578 121.799 34.0586 121.438 33.4747C121.372 33.3932 121.319 33.302 121.281 33.2041V33.1787L119.882 33.5695L119.898 33.6042C120.041 33.9283 120.214 34.238 120.416 34.5291C120.689 34.8967 121.341 35.6852 121.878 36.0135C122.25 36.2426 122.675 36.3731 123.112 36.3927H127.004C127.434 36.3719 127.851 36.2414 128.216 36.0135C128.829 35.5534 129.374 35.0084 129.834 34.3949V34.3949C130.036 34.044 130.135 33.6434 130.121 33.2388V31.6457C130.112 30.5866 129.487 29.6779 128.588 29.4236Z" fill="currentColor"/>
    <path d="M141.872 29.4236L135.474 27.6431C135.267 27.5653 135.089 27.4252 134.965 27.2422C134.84 27.0592 134.776 26.8422 134.78 26.6211V25.1436C134.785 25.0422 134.815 24.9437 134.868 24.8568C135.24 24.3027 135.733 23.8408 136.311 23.5065C136.399 23.46 136.498 23.4377 136.597 23.4417H139.892C139.993 23.4378 140.093 23.4609 140.181 23.5088C140.761 23.8823 141.247 24.3828 141.604 24.9724C141.667 25.0661 141.72 25.1661 141.763 25.2707V25.2962L143.15 24.8892H143.185L143.171 24.8545C143.021 24.5292 142.839 24.2194 142.628 23.9296C142.357 23.562 141.703 22.7735 141.167 22.4451C140.802 22.217 140.385 22.0865 139.955 22.0659H136.463C136.039 22.0895 135.628 22.2199 135.268 22.4451C134.653 22.9164 134.108 23.4722 133.649 24.0961C133.447 24.447 133.348 24.8476 133.363 25.2522V26.7043C133.363 27.7749 133.968 28.6929 134.838 28.938L141.259 30.6953C141.708 30.8132 141.985 31.3428 141.985 31.7659V33.2642C141.987 33.3647 141.964 33.464 141.918 33.5533C141.538 34.1183 141.037 34.5921 140.452 34.9406C140.372 34.987 140.281 35.0094 140.188 35.0054H136.449C136.341 35.0092 136.234 34.9862 136.137 34.9383C135.565 34.5586 135.081 34.0592 134.72 33.4747V33.4747C134.655 33.3925 134.602 33.3014 134.563 33.2041V33.1787L133.175 33.5695L133.189 33.6042C133.333 33.9278 133.506 34.2374 133.707 34.5291C133.98 34.8967 134.632 35.6852 135.168 36.0135C135.542 36.2426 135.968 36.3731 136.406 36.3927H140.295C140.724 36.3722 141.142 36.2416 141.506 36.0135C142.12 35.5539 142.665 35.0089 143.125 34.3949V34.3949C143.326 34.0438 143.425 33.6432 143.409 33.2388V31.6457C143.393 30.5866 142.769 29.6779 141.872 29.4236Z" fill="currentColor"/>
</svg>

<svg width="181" height="40" fill="none" xmlns="http://www.w3.org/2000/svg"><path d="M40 0H0v40h40V0Z" class="fill-brand"/><path d="m10.805 10.265 19.35 9.623-19.373 9.845 12.461-9.816-12.438-9.652Z" fill="#050504"/><path d="M57.055 14.616 53.598 3.74h-2.631l4.63 14.045h2.885l4.65-14.045h-2.604l-3.473 10.875ZM95.587 15.437h-6.37v-3.443h5.92V9.635h-5.92V6.09h6.37V3.741h-8.838v14.045h8.838v-2.35ZM80.78 17.365a7.356 7.356 0 0 0 1.74-1.642 2.36 2.36 0 0 0 .354-1.34V7.197a2.208 2.208 0 0 0-.372-1.341c-.284-.402-1.175-1.41-1.695-1.711a2.81 2.81 0 0 0-1.438-.405h-6.43v14.047h6.43a3.007 3.007 0 0 0 1.41-.423Zm-5.374-1.928V6.09h3.73a.657.657 0 0 1 .214.021c.422.26.778.616 1.038 1.038a.4.4 0 0 1 .019.118v7.069c0 .273-.705.89-1.038 1.075a.498.498 0 0 1-.155.019l-3.808.007ZM68.614 3.741h-2.467v14.054h2.467V3.741ZM160.8 3.741v9.446l-4.826-9.446h-2.652v14.045h2.465V8.461l4.865 9.325h2.613V3.741H160.8ZM136.047 17.788l-2.791-5.725a2.27 2.27 0 0 0 .608-.335c.47-.365.896-.781 1.272-1.242.282-.426.43-.927.423-1.438V6.983a2.589 2.589 0 0 0-.423-1.433c-.373-.478-.8-.91-1.272-1.29a3.003 3.003 0 0 0-1.664-.521h-6.604v14.05h2.465v-5.534h2.7l2.613 5.55 2.673-.017Zm-2.955-8.759a.21.21 0 0 1-.03.098c-.185.321-.654.772-.862.772h-4.139V6.09h4.256c.232.02.609.49.745.753a.37.37 0 0 1 .03.158v2.027ZM147.523 4.067a2.969 2.969 0 0 0-1.457-.423h-3.579a2.934 2.934 0 0 0-1.457.423c-.49.282-1.431 1.29-1.713 1.693a2.333 2.333 0 0 0-.373 1.34v7.36c-.013.471.117.935.373 1.33.282.403 1.223 1.42 1.713 1.693.44.269.942.417 1.457.43h3.572a2.974 2.974 0 0 0 1.457-.43c.49-.273 1.41-1.29 1.713-1.693.256-.395.387-.858.375-1.33V7.1a2.346 2.346 0 0 0-.384-1.34c-.294-.403-1.214-1.41-1.697-1.693Zm-.37 10.364a.208.208 0 0 1-.03.097c-.275.398-.624.74-1.027 1.008a.403.403 0 0 1-.118.019h-3.394a.31.31 0 0 1-.118-.019 3.708 3.708 0 0 1-1.036-1.008.232.232 0 0 1-.021-.097V7.168a.394.394 0 0 1 .021-.118 3.813 3.813 0 0 1 1.036-1.027c.021-.027.118-.027.118-.027h3.387a.231.231 0 0 1 .118.027 3.94 3.94 0 0 1 1.027 1.027c.03.03.03.118.03.118l.007 7.263ZM122.257 3.741h-10.082v2.35h3.809v11.707h2.465V6.09h3.808V3.741ZM109.525 15.79c.25-.397.379-.86.37-1.33V7.1a2.417 2.417 0 0 0-.37-1.34c-.305-.403-1.225-1.41-1.725-1.693a2.973 2.973 0 0 0-1.435-.423h-3.584a2.923 2.923 0 0 0-1.46.423c-.497.282-1.438 1.29-1.71 1.693-.261.398-.395.865-.384 1.34v7.36c-.01.473.124.936.383 1.33.273.403 1.214 1.42 1.711 1.693.44.27.944.418 1.46.43h3.584a2.985 2.985 0 0 0 1.447-.43c.488-.273 1.408-1.297 1.713-1.693Zm-2.097-1.36a.321.321 0 0 1-.018.098 3.84 3.84 0 0 1-1.045 1.008.415.415 0 0 1-.118.019h-3.379a.325.325 0 0 1-.115-.019 3.66 3.66 0 0 1-1.031-1.008.168.168 0 0 1-.028-.097V7.168c0-.04.01-.081.028-.118a3.76 3.76 0 0 1 1.031-1.027c.028-.027.115-.027.115-.027h3.388a.231.231 0 0 1 .118.027c.406.275.757.623 1.036 1.027a.337.337 0 0 1 .018.118v7.263ZM59.999 22.635a2.488 2.488 0 0 0-1.427-.463h-6.356v14.121h6.356c.51 0 1.009-.157 1.427-.45.435-.375.83-.795 1.18-1.251.23-.361.346-.784.332-1.212v-2.003a2.27 2.27 0 0 0-.333-1.26 8.026 8.026 0 0 0-.895-.966c.325-.297.624-.62.895-.967a2.27 2.27 0 0 0 .333-1.26v-1.803a2.261 2.261 0 0 0-.333-1.258c-.35-.45-.744-.861-1.18-1.228Zm-6.354 7.205h4.934a.86.86 0 0 1 .36.065c.447.288.82.676 1.088 1.135a.838.838 0 0 1 .067.36v1.922a.856.856 0 0 1-.065.358c-.27.46-.643.849-1.092 1.136a.72.72 0 0 1-.381.09h-4.911V29.84Zm5.295-1.443a.865.865 0 0 1-.36.09h-4.935v-4.95h4.911a.738.738 0 0 1 .384.09 3.51 3.51 0 0 1 1.087 1.156.838.838 0 0 1 .067.36v1.735a.992.992 0 0 1-.065.384 3.416 3.416 0 0 1-1.096 1.135h.007ZM72.876 33.204a.633.633 0 0 1-.09.29 4.798 4.798 0 0 1-1.42 1.465.56.56 0 0 1-.287.065h-2.904a.572.572 0 0 1-.291-.067 4.939 4.939 0 0 1-1.462-1.464.634.634 0 0 1-.09-.289V22.161H64.91V33.26c-.008.402.1.799.31 1.142a8.042 8.042 0 0 0 1.602 1.619c.373.229.798.36 1.235.379h3.14c.43-.02.847-.151 1.212-.38a8.117 8.117 0 0 0 1.605-1.618c.202-.345.301-.742.284-1.142v-11.1h-1.422v11.044ZM86.218 29.424l-6.396-1.78a1.07 1.07 0 0 1-.694-1.023v-1.477a.616.616 0 0 1 .09-.287 4.373 4.373 0 0 1 1.441-1.35.571.571 0 0 1 .287-.065h3.304c.1-.005.2.019.289.067a4.51 4.51 0 0 1 1.42 1.468c.063.094.116.194.16.298l.01.026 1.423-.416-.014-.035a5.48 5.48 0 0 0-.543-.925c-.273-.368-.925-1.156-1.462-1.485a2.518 2.518 0 0 0-1.211-.379H80.83c-.43.02-.847.151-1.212.38A8.162 8.162 0 0 0 78 24.09c-.202.351-.301.752-.287 1.157V26.7c0 1.07.608 1.988 1.478 2.233l6.418 1.758c.45.118.727.647.727 1.07v1.499c.001.1-.021.199-.065.289a4.624 4.624 0 0 1-1.466 1.387.489.489 0 0 1-.264.065h-3.743a.657.657 0 0 1-.315-.067 4.751 4.751 0 0 1-1.415-1.464.962.962 0 0 1-.16-.27v-.026l-1.398.39.013.035c.144.325.318.635.52.925.271.368.926 1.157 1.462 1.485.373.229.798.36 1.235.38h3.89c.429-.021.846-.152 1.21-.38a8.044 8.044 0 0 0 1.62-1.619c.201-.35.3-.751.286-1.156v-1.593c-.005-1.054-.631-1.963-1.528-2.217ZM92.426 22.16h-1.424v14.124h1.424V22.161ZM103.865 34.169l-6.007-11.992-.01-.016h-1.856v14.12h1.376V24.389l6.055 11.878.01.016h1.808V22.16h-1.376v12.008ZM108.827 36.282h8.123v-1.376h-6.701V29.91h6.35v-1.375h-6.35v-4.997h6.701V22.16h-8.123v14.12ZM128.588 29.424l-6.396-1.78a1.077 1.077 0 0 1-.694-1.023v-1.477a.61.61 0 0 1 .091-.287 4.352 4.352 0 0 1 1.442-1.35.56.56 0 0 1 .287-.065h3.302a.563.563 0 0 1 .291.067 4.525 4.525 0 0 1 1.42 1.463c.063.094.117.194.16.299l.011.025 1.388-.407h.034l-.014-.034a5.627 5.627 0 0 0-.543-.925c-.271-.368-.925-1.157-1.461-1.485a2.513 2.513 0 0 0-1.212-.38h-3.491c-.43.021-.847.152-1.212.38a8.213 8.213 0 0 0-1.619 1.651 2.165 2.165 0 0 0-.284 1.156v1.452c0 1.07.606 1.989 1.475 2.234l6.421 1.757c.447.118.724.648.724 1.07v1.5a.63.63 0 0 1-.065.288 4.61 4.61 0 0 1-1.466 1.388.482.482 0 0 1-.263.064h-3.746a.67.67 0 0 1-.315-.067 4.78 4.78 0 0 1-1.415-1.463 1.011 1.011 0 0 1-.157-.27v-.026l-1.399.39.016.035c.143.324.316.634.518.925.273.368.925 1.156 1.462 1.484.372.23.797.36 1.234.38h3.892c.43-.021.847-.152 1.212-.38a8.1 8.1 0 0 0 1.618-1.618c.202-.351.301-.752.287-1.156v-1.593c-.009-1.06-.634-1.968-1.533-2.222ZM141.872 29.424l-6.398-1.78a1.07 1.07 0 0 1-.694-1.023v-1.477a.608.608 0 0 1 .088-.287 4.378 4.378 0 0 1 1.443-1.35.564.564 0 0 1 .286-.065h3.295a.56.56 0 0 1 .289.067c.58.373 1.066.874 1.423 1.463.063.094.116.194.159.299v.025l1.387-.407h.035l-.014-.034a5.446 5.446 0 0 0-.543-.925c-.271-.368-.925-1.157-1.461-1.485a2.513 2.513 0 0 0-1.212-.38h-3.492a2.517 2.517 0 0 0-1.195.38 8.208 8.208 0 0 0-1.619 1.651c-.202.351-.301.752-.286 1.156v1.452c0 1.07.605 1.989 1.475 2.234l6.421 1.757c.449.118.726.648.726 1.07v1.5c.002.1-.021.199-.067.288a4.61 4.61 0 0 1-1.466 1.388.483.483 0 0 1-.264.064h-3.739a.652.652 0 0 1-.312-.067 4.76 4.76 0 0 1-1.417-1.463 1.09 1.09 0 0 1-.157-.27v-.026l-1.388.39.014.035c.144.324.317.633.518.925.273.368.925 1.156 1.461 1.484.374.23.8.36 1.238.38h3.889c.429-.02.847-.151 1.211-.38a8.052 8.052 0 0 0 1.619-1.618c.201-.351.3-.752.284-1.156v-1.593c-.016-1.06-.64-1.968-1.537-2.222Z" fill="currentColor"/></svg>
